X: 17
T: DA BRIG
C: Fredamann Stickle (Shetland)
S: Eunice Henderson, Bells Brae
R: jig
B: Haand me doon da fiddle, 1979
Z: 2012 John Chambers <jc:trillian.mit.edu>
M: 6/8
L: 1/8
Q: "Fairly Steady"
K: D
|:\
k[d3D2] [A3D2] | k[AD][FD]D D3 | d3 A2F | k[D2G,2]g f(uef) |\
d3 A3 | AFD D2(F | E2)(F G2)A | {Bc}B3 ABc :|
|:\
d2e f2d | c2e ecA | d2e f2d | g3 f2(g |\
a2)(f g2)(e | f2)(d e2)(c | d2)A F2A | {Bc}B3 ABc :|
%%begintext align
Da great Unst fiddler Fredamann Stickle wha lived ower a hundred
years ago made up dis t\"un whan he stod ida door o' his croft at
Burrafirth an watched a sailin ship awa oot at sea rowlin as sh\"u
sailed alang.  Da ship wis a brigantine so he caaed da t\"un "Da
Brig" fir short.  If du plays him kinda slow an follows whaur
we're accented him du can hear da motion o' da ship.
%%endtext

%%sep 2 1 500
%%sep 1 1 500

